package/converter/svg/light/calendar-arrow-up.svg

<svg xmlns="http://www.w3.org/2000/svg" viewBox="0 0 448 512"><!-- Font Awesome Pro 6.0.0-alpha2 by @fontawesome - https://fontawesome.com License - https://fontawesome.com/license (Commercial License) --><path d="M384 64H352V16C352 7.164 344.836 0 336 0S320 7.164 320 16V64H128V16C128 7.164 120.836 0 112 0S96 7.164 96 16V64H64C28.654 64 0 92.654 0 128V448C0 483.346 28.654 512 64 512H384C419.346 512 448 483.346 448 448V128C448 92.654 419.346 64 384 64ZM416 448C416 465.674 401.674 480 384 480H64C46.326 480 32 465.674 32 448V192H416V448ZM416 160H32V128C32 110.326 46.326 96 64 96H384C401.674 96 416 110.326 416 128V160ZM162.625 347.969L208 307.631V416C208 424.844 215.156 432 224 432S240 424.844 240 416V307.631L285.375 347.969C288.406 350.656 292.219 352 296 352C300.406 352 304.812 350.188 307.969 346.625C313.844 340.031 313.219 329.906 306.625 324.031L234.625 260.047C228.562 254.641 219.437 254.641 213.375 260.047L141.375 324.031C134.781 329.906 134.156 340.031 140.031 346.625C145.875 353.219 156.031 353.781 162.625 347.969Z"/></svg>

<svg xmlns="http://www.w3.org/2000/svg" viewBox="0 0 448 512"><!--! Font Awesome Pro 6.6.0 by @fontawesome - https://fontawesome.com License - https://fontawesome.com/license (Commercial License) Copyright 2024 Fonticons, Inc. --><path d="M128 16c0-8.8-7.2-16-16-16s-16 7.2-16 16l0 48L64 64C28.7 64 0 92.7 0 128l0 32 0 32L0 448c0 35.3 28.7 64 64 64l320 0c35.3 0 64-28.7 64-64l0-256 0-32 0-32c0-35.3-28.7-64-64-64l-32 0 0-48c0-8.8-7.2-16-16-16s-16 7.2-16 16l0 48L128 64l0-48zM32 192l384 0 0 256c0 17.7-14.3 32-32 32L64 480c-17.7 0-32-14.3-32-32l0-256zM64 96l320 0c17.7 0 32 14.3 32 32l0 32L32 160l0-32c0-17.7 14.3-32 32-32zM208 416c0 8.8 7.2 16 16 16s16-7.2 16-16l0-121.4 52.7 52.7c6.2 6.2 16.4 6.2 22.6 0s6.2-16.4 0-22.6l-80-80c-6.2-6.2-16.4-6.2-22.6 0l-80 80c-6.2 6.2-6.2 16.4 0 22.6s16.4 6.2 22.6 0L208 294.6 208 416z"/></svg>
